resources/icons/20px/low-voltage-pole.svg

<svg width="20" height="20" viewBox="0 0 20 20" fill="none" xmlns="http://www.w3.org/2000/svg">
<path d="M10 0C9.44771 0 9 0.447716 9 1V3H5V2C5 1.44772 4.55228 1 4 1C3.44772 1 3 1.44772 3 2V3H2C1.44772 3 1 3.44772 1 4C1 4.55228 1.44772 5 2 5H3V7H2C1.44772 7 1 7.44772 1 8C1 8.55228 1.44772 9 2 9H6C6.55228 9 7 8.55228 7 8C7 7.44772 6.55228 7 6 7H5V5H9V19C9 19.5523 9.44771 20 10 20C10.5523 20 11 19.5523 11 19V5H15V7H14C13.4477 7 13 7.44772 13 8C13 8.55228 13.4477 9 14 9H18C18.5523 9 19 8.55228 19 8C19 7.44772 18.5523 7 18 7H17V5H18C18.5523 5 19 4.55228 19 4C19 3.44772 18.5523 3 18 3H17V2C17 1.44772 16.5523 1 16 1C15.4477 1 15 1.44772 15 2V3H11V1C11 0.447715 10.5523 0 10 0Z" fill="black"/>
</svg>

<svg xmlns="http://www.w3.org/2000/svg" viewBox="0 0 20 20">
  <path d="M10 0a1 1 0 0 0-1 1v2H5V2a1 1 0 0 0-2 0v1H2a1 1 0 0 0 0 2h1v2H2a1 1 0 0 0 0 2h4a1 1 0 0 0 0-2H5V5h4v14a1 1 0 1 0 2 0V5h4v2h-1a1 1 0 1 0 0 2h4a1 1 0 1 0 0-2h-1V5h1a1 1 0 1 0 0-2h-1V2a1 1 0 1 0-2 0v1h-4V1a1 1 0 0 0-1-1"/>
</svg>
